X:1
T:The Well-Tempered Clavier Part II Praeludium XX
T:BWV 889
T:J. S. Bach
%%score { 1 | 2 }
L:1/8
Q:1/4=96
M:4/4
K:C
V:1 treble nm="Harp"
V:2 bass 
V:1
"^Andante" z/4 c/4d/4e/4f/c/ B/^d/e/_B/ A/^c/=d/^G/- G/A=B/ | EA ^G=G ^F^E =ED- | %2
 D/C/4B,/4C/A/- A/^G/e/=G/- G/F/4E/4^D/B/- B/^A/^f/=A/- | %3
 A/4G/4A/4B/4c/G/ ^F/^A/B/=F/ E/^G/=A/^D/- D/E^F/ | De ^d=d ^c=c BA- | %5
 A/G/4^F/4G/e/- e/^d/b/=d/- d/c/4B/4c/A/ B^c | d/D/d- d/^c/a/=c/- c/B/4A/4B/G/ AB | %7
 cc' b_b a_a gf- | f/4B/4c/4d/4e/B/ ^A/^c/d/=A/ ^G/B/=c/=G/- G/^FG/4A/4 | DG AB cA B^c | %10
 dD ^C=C[I:staff +1] B,_B, A,G,- | %11
 G,/F,/4E,/4F,/[I:staff -1]D/- D/^C/A/=C/- C/B,/4A,/4^G,/E/- E/^D/B/=D/- | %12
 D/4C/4D/4E/4F/C/ B,/^D/E/_B,/ A,/^C/=D/^G,/- G,/A,=B,/ | E,E ^F^G A/A,/A- A/G/e/=G/- | %14
 G/^F/4E/4F/D/ EF G/G,/G- G/F/d/=F/- | F/E/4D/4E/e/- e/f/4e/4d/4c/4B/4A/4 ^G4 | %16
 z/4 c/4d/4e/4f/c/ B/^d/e/_B/ A/^c/=d/^G/- G/A=B/ | EA ^G=G ^F^E =ED- | %18
 D/C/4B,/4C/A/- A/^G/e/=G/- G/F/4E/4^D/B/- B/^A/^f/=A/- | %19
 A/4G/4A/4B/4c/G/ ^F/^A/B/=F/ E/^G/=A/^D/- D/E^F/ | De ^d=d ^c=c BA- | %21
 A/G/4^F/4G/e/- e/^d/b/=d/- d/c/4B/4c/A/ B^c | d/D/d- d/^c/a/=c/- c/B/4A/4B/G/ AB | %23
 cc' b_b a_a gf- | f/4B/4c/4d/4e/B/ ^A/^c/d/=A/ ^G/B/=c/=G/- G/^FG/4A/4 | DG AB cA B^c | %26
 dD ^C=C[I:staff +1] B,_B, A,G,- | %27
 G,/F,/4E,/4F,/[I:staff -1]D/- D/^C/A/=C/- C/B,/4A,/4^G,/E/- E/^D/B/=D/- | %28
 D/4C/4D/4E/4F/C/ B,/^D/E/_B,/ A,/^C/=D/^G,/- G,/A,=B,/ | E,E ^F^G A/A,/A- A/G/e/=G/- | %30
 G/^F/4E/4F/D/ EF G/G,/G- G/F/d/=F/- | F/E/4D/4E/e/- e/f/4e/4d/4c/4B/4A/4 ^G4 | eE ^E^F G^G AB | %33
 c/4f/4e/4d/4^c/^f/ g/_e/d/^g/ a/=f/=e/_b/- b/ag/ | %34
 a/4g/4f/4e/4f/_B/ A/e/d/^G/- G/4d/4c/4=B/4A/e/ d/=G/^F/c/ | Bg fe df ed- | dc/B/ c^c d^d e^f | %37
 g/4f/4e/4d/4^c/^g/ a/_e/d/^a/ b/f/=e/d/- d/=cB/- | B/A/4B/4c/^D/ E/^c/d/^E/ Gdc_B- | %39
 B/4A/4G/4A/4_B/^C/ D/=B/c/E/ Fc B_A- | A/4G/4=A/4B/4c/G/ ^F/^A/B/=F/ E/^G/=A/^D/- D/EF/ | %41
 B,e f^f g^g ab- | b/a/4b/4c'/e/- e/^d/b/=d/- d/4c/4d/4e/4f/A/- A/^G/e/=G/- | %43
 G/4F/4G/4A/4_B/D/- D/^C/A/=C/- C/B,/^G/B,/- B,/A,/F/A,/- | %44
 A,/^G,/4^F,/4G,/D/- D/4C/4B,/4A,/4B,/F/- F/4E/4D/4^C/4D/B/- B/4A/4^G/4^F/4G/d/- | %45
 d/c/4B/4c/A/ _B=B c^c de- | e/4^c/4d/4e/4f/=c/ B/^d/e/_B/ A/^c/=d/^G/- G/A=B/ | %47
 E/e/-e/4d/4c/4B/4 d/4c/4B/4A/4c/4B/4A/4^G/4 A/4G/4A3/2- A2 | eE ^E^F G^G AB | %49
 c/4f/4e/4d/4^c/^f/ g/_e/d/^g/ a/=f/=e/_b/- b/ag/ | %50
 a/4g/4f/4e/4f/_B/ A/e/d/^G/- G/4d/4c/4=B/4A/e/ d/=G/^F/c/ | Bg fe df ed- | dc/B/ c^c d^d e^f | %53
 g/4f/4e/4d/4^c/^g/ a/_e/d/^a/ b/f/=e/d/- d/=cB/- | B/A/4B/4c/^D/ E/^c/d/^E/ Gdc_B- | %55
 B/4A/4G/4A/4_B/^C/ D/=B/c/E/ Fc B_A- | A/4G/4=A/4B/4c/G/ ^F/^A/B/=F/ E/^G/=A/^D/- D/EF/ | %57
 B,e f^f g^g ab- | b/a/4b/4c'/e/- e/^d/b/=d/- d/4c/4d/4e/4f/A/- A/^G/e/=G/- | %59
 G/4F/4G/4A/4_B/D/- D/^C/A/=C/- C/B,/^G/B,/- B,/A,/F/A,/- | %60
 A,/^G,/4^F,/4G,/D/- D/4C/4B,/4A,/4B,/F/- F/4E/4D/4^C/4D/B/- B/4A/4^G/4^F/4G/d/- | %61
 d/c/4B/4c/A/ _B=B c^c de- | e/4^c/4d/4e/4f/=c/ B/^d/e/_B/ A/^c/=d/^G/- G/A=B/ | %63
 E/e/-e/4d/4c/4B/4 d/4c/4B/4A/4c/4B/4A/4^G/4 A/4G/4A3/2- !fermata!A2 |] %64
V:2
 A,,A, ^G,=G, ^F,=F, E,D,- | %1
 D,/4C,/4D,/4E,/4F,/C,/ B,,/^D,/E,/_B,,/ A,,/^C,/=D,/^G,,/- G,,/A,,=B,,/ | %2
 E,,A,, B,,^C, D,B,, C,^D, | E,E ^D=D ^C=C B,A,- | %4
 A,/4G,/4A,/4B,/4C/G,/ ^F,/^A,/B,/=F,/ E,/^G,/=A,/^D,/- D,/E,^F,/ | %5
 B,,E, ^F,^G, A,/A,,/A,- A,/G,/E/=G,/- | G,/^F,/4E,/4F,/D,/ E,F, G,/G,,/G,- G,/F,/D/=F,/- | %7
 F,/4E,/4F,/4G,/4A,/E,/ ^D,/^F,/G,/=D,/ ^C,/E,/=F,/=C,/- C,/B,,C,/4D,/4 | %8
 G,,G, ^F,=F, E,_E, D,C,- | %9
 C,/B,,/4A,,/4B,,/G,/- G,/^F,/B,/=F,/- F,/E,/4D,/4^C,/A,/- A,/^G,/E/=G,/- | %10
 G,/4^F,/4G,/4A,/4_B,/=F,/ E,/^G,/A,/_E,/ D,/^F,/=G,/^C,/- C,/D,=E,/ | A,,D, E,^F, G,E, F,^G, | %12
 A,/A,,/A, ^G,=G, ^F,=F, E,D,- | D,/C,/4B,,/4C,/E,/- E,/^D,/B,/=D,/- D,/^C,/4B,,/4C,/A,,/ B,,C, | %14
 D,/D,,/D,- D,/^C,/A,/=C,/- C,/B,,/4A,,/4B,,/G,,/ A,,B,, | %15
 D,/4C,/4D,/4D,/4C,/4D,/4B,,/4A,,/4 E,/4F,/4G,/4F,/4G,/4F,/4G,/4F,/4 E,/4[I:staff -1] E/4D/4[I:staff +1]C/4B,/4A,/4^G,/4^F,/4 E,E,, | %16
 A,,A, ^G,=G, ^F,=F, E,D,- | %17
 D,/4C,/4D,/4E,/4F,/C,/ B,,/^D,/E,/_B,,/ A,,/^C,/=D,/^G,,/- G,,/A,,=B,,/ | %18
 E,,A,, B,,^C, D,B,, C,^D, | E,E ^D=D ^C=C B,A,- | %20
 A,/4G,/4A,/4B,/4C/G,/ ^F,/^A,/B,/=F,/ E,/^G,/=A,/^D,/- D,/E,^F,/ | %21
 B,,E, ^F,^G, A,/A,,/A,- A,/G,/E/=G,/- | G,/^F,/4E,/4F,/D,/ E,F, G,/G,,/G,- G,/F,/D/=F,/- | %23
 F,/4E,/4F,/4G,/4A,/E,/ ^D,/^F,/G,/=D,/ ^C,/E,/=F,/=C,/- C,/B,,C,/4D,/4 | %24
 G,,G, ^F,=F, E,_E, D,C,- | %25
 C,/B,,/4A,,/4B,,/G,/- G,/^F,/B,/=F,/- F,/E,/4D,/4^C,/A,/- A,/^G,/E/=G,/- | %26
 G,/4^F,/4G,/4A,/4_B,/=F,/ E,/^G,/A,/_E,/ D,/^F,/=G,/^C,/- C,/D,=E,/ | A,,D, E,^F, G,E, F,^G, | %28
 A,/A,,/A, ^G,=G, ^F,=F, E,D,- | D,/C,/4B,,/4C,/E,/- E,/^D,/B,/=D,/- D,/^C,/4B,,/4C,/A,,/ B,,C, | %30
 D,/D,,/D,- D,/^C,/A,/=C,/- C,/B,,/4A,,/4B,,/G,,/ A,,B,, | %31
 D,/4C,/4D,/4D,/4C,/4D,/4B,,/4A,,/4 E,/4F,/4G,/4F,/4G,/4F,/4G,/4F,/4 E,/4[I:staff -1] E/4D/4[I:staff +1]C/4B,/4A,/4^G,/4^F,/4 E,E,, | %32
 z/4 C/4B,/4A,/4^G,/^C/ D/_B,/A,/^D/ E/=C/=B,/F/- F/E=D/ | AA, ^A,B, C^C DE | ^ED CB, A,C B,A, | %35
 G,/4B,/4C/4D/4E/_B,/ A,/D/^C/G,/- G,/4G/4F/4E/4D/^G/ A/=C/=B,/F/ | %36
 E/4D/4C/4B,/4A,/^G,/ A,/F,/E,/^A,/ B,/=G,/^F,/C/- C/B,=A,/ | EE, F,^F, G,^G, A,B, | %38
 CA, G,F, E,/4F,/4G,/4A,/4_B,/F,/ E,/A,/G,/D,/ | %39
 ^C,G, F,_E, D,/4E,/4F,/4G,/4_A,/E,/ D,/G,/F,/=C,/ | B,,E, ^D,=D, ^C,=C, B,,A,,- | %41
 A,,/4C,/4B,,/4A,,/4^G,,/^C,/ D,/_B,,/A,,/^D,/ F,/=C,/=B,,/F,/- F,/E,=D,/ | %42
 C,E, ^F,^G, A,A,, B,,^C, | D,D,, E,,E, ^D,=D, ^C,=C, | B,,B,, A,,A,, ^G,, G,,E,,E,, | %45
 A,,-A,,/4D,/4E,/4^F,/4 G,/_E,/D,/^G,/ A,/=F,/=E,/_B,/- B,/A,=G,/ | %46
 F,/4E,/4F,/4G,/4A, ^G,=G, ^F,=F, E,D,- | %47
 D,/C,/4B,,/4C,/A,,/ E,/4D,/4E,/E,, A,,/B,,/4C,/4D,/4E,/4^F,/4^G,/4 A,A,, | %48
 z/4 C/4B,/4A,/4^G,/^C/ D/_B,/A,/^D/ E/=C/=B,/F/- F/E=D/ | AA, ^A,B, C^C DE | ^ED CB, A,C B,A, | %51
 G,/4B,/4C/4D/4E/_B,/ A,/D/^C/G,/- G,/4G/4F/4E/4D/^G/ A/=C/=B,/F/ | %52
 E/4D/4C/4B,/4A,/^G,/ A,/F,/E,/^A,/ B,/=G,/^F,/C/- C/B,=A,/ | EE, F,^F, G,^G, A,B, | %54
 CA, G,F, E,/4F,/4G,/4A,/4_B,/F,/ E,/A,/G,/D,/ | %55
 ^C,G, F,_E, D,/4E,/4F,/4G,/4_A,/E,/ D,/G,/F,/=C,/ | B,,E, ^D,=D, ^C,=C, B,,A,,- | %57
 A,,/4C,/4B,,/4A,,/4^G,,/^C,/ D,/_B,,/A,,/^D,/ F,/=C,/=B,,/F,/- F,/E,=D,/ | %58
 C,E, ^F,^G, A,A,, B,,^C, | D,D,, E,,E, ^D,=D, ^C,=C, | B,,B,, A,,A,, ^G,,G,, E,,E,, | %61
 A,,-A,,/4D,/4E,/4^F,/4 G,/_E,/D,/^G,/ A,/=F,/=E,/_B,/- B,/A,=G,/ | %62
 F,/4E,/4F,/4G,/4A, ^G,=G, ^F,=F, E,D,- | %63
 D,/C,/4B,,/4C,/A,,/ E,/4D,/4E,/E,, A,,/B,,/4C,/4D,/4E,/4^F,/4^G,/4 A,!fermata!A,, |] %64

